icons/alarm-clock-17.svg

<svg width="16" height="17" viewBox="0 0 16 17" fill="none" xmlns="http://www.w3.org/2000/svg">
<path fill-rule="evenodd" clip-rule="evenodd" d="M13.6244 4.79113C13.6244 5.55746 13.2963 6.24645 12.7737 6.72687C13.0783 7.39243 13.2494 8.13533 13.2471 8.91807C13.2471 10.1648 12.8135 11.3108 12.087 12.2107L13.083 13.2067C13.3033 13.4247 13.3033 13.7809 13.083 14.0012C12.8651 14.2215 12.5089 14.2215 12.2886 14.0012L11.2902 13.0028C9.36152 14.5589 6.61492 14.5425 4.70495 13.0028L3.70895 13.9988C3.491 14.2191 3.13479 14.2191 2.9145 13.9988C2.69421 13.7809 2.69421 13.4247 2.9145 13.2044L3.91049 12.2084C3.18635 11.3085 2.75045 10.1625 2.75045 8.91572C2.75045 8.13533 2.92153 7.39243 3.22619 6.72687C2.70358 6.24645 2.37549 5.55746 2.37549 4.79113C2.37549 3.34049 3.54959 2.16638 5.00023 2.16638C6.06185 2.16638 6.97582 2.79445 7.38828 3.70139C7.79371 3.65452 8.20617 3.65452 8.6116 3.70139C9.02406 2.79445 9.93803 2.16638 10.9996 2.16638C12.4503 2.16638 13.6244 3.34049 13.6244 4.79113ZM12.4995 4.79113C12.4995 3.96386 11.8269 3.29127 10.9996 3.29127C10.477 3.29127 10.0177 3.55843 9.75055 3.96386C10.7184 4.30602 11.5574 4.92471 12.1714 5.72619C12.3753 5.47075 12.4995 5.145 12.4995 4.79113ZM5.00023 3.29127C4.17297 3.29127 3.50038 3.96386 3.50038 4.79113C3.50038 5.145 3.62458 5.47075 3.83081 5.72619C4.44247 4.92471 5.28145 4.30602 6.25167 3.96386C5.98217 3.55843 5.52284 3.29127 5.00023 3.29127ZM3.87534 8.91572C3.87534 11.196 5.71969 13.0403 7.99994 13.0403C10.2802 13.0403 12.1245 11.196 12.1245 8.91572C12.1245 6.63782 10.2825 4.79113 7.99994 4.79113C5.71266 4.79113 3.87534 6.64251 3.87534 8.91572ZM8.18526 7.12577C8.18526 6.99184 8.13206 6.8634 8.03735 6.76869C7.94265 6.67399 7.81421 6.62079 7.68028 6.62079C7.54635 6.62079 7.4179 6.67399 7.3232 6.76869C7.2285 6.8634 7.17529 6.99184 7.17529 7.12577V9.48236C7.17531 9.58321 7.20554 9.68175 7.26206 9.76527C7.31858 9.84879 7.39881 9.91347 7.49242 9.95099L9.1757 10.6243C9.29899 10.6693 9.43499 10.6646 9.55484 10.6111C9.67469 10.5575 9.76903 10.4594 9.81777 10.3376C9.86652 10.2157 9.86591 10.0796 9.81609 9.95819C9.76626 9.83676 9.67106 9.73951 9.55074 9.68705L8.18526 9.14032V7.12577Z" fill="#272431"/>
</svg>

<svg xmlns="http://www.w3.org/2000/svg" width="16" height="17" viewBox="0 0 16 17"><path fill-rule="evenodd" d="M13.624 4.791c0 .766-.328 1.455-.85 1.936.304.665.475 1.408.473 2.191a5.224 5.224 0 01-1.16 3.293l.996.996a.56.56 0 010 .794.56.56 0 01-.794 0l-.999-.998a5.25 5.25 0 01-6.585 0l-.996.996a.56.56 0 01-.795 0 .56.56 0 010-.795l.996-.996a5.237 5.237 0 01-1.16-3.292c0-.78.172-1.524.476-2.19a2.623 2.623 0 114.162-3.025 5.34 5.34 0 011.224 0 2.623 2.623 0 015.013 1.09zm-1.125 0c0-.827-.672-1.5-1.5-1.5a1.49 1.49 0 00-1.248.673c.967.342 1.806.96 2.42 1.762.204-.255.329-.581.329-.935zM5 3.291c-.827 0-1.5.673-1.5 1.5 0 .354.125.68.33.935a5.241 5.241 0 012.422-1.762A1.5 1.5 0 005 3.29zM3.875 8.916A4.122 4.122 0 008 13.04a4.122 4.122 0 004.124-4.124A4.122 4.122 0 008 4.79a4.122 4.122 0 00-4.125 4.125zm4.31-1.79a.505.505 0 10-1.01 0v2.356a.505.505 0 00.317.469l1.684.673a.505.505 0 00.375-.937L8.185 9.14V7.126z"/></svg>
